teeny/outline/church.svg

<svg width="15" height="15" viewBox="0 0 15 15" fill="none" xmlns="http://www.w3.org/2000/svg">
<path d="M3 8.5C3 8.22386 2.77614 8 2.5 8C2.22386 8 2 8.22386 2 8.5H3ZM13 8.5C13 8.22386 12.7761 8 12.5 8C12.2239 8 12 8.22386 12 8.5H13ZM5.5 10.5V10H5V10.5H5.5ZM9.5 10.5H10V10H9.5V10.5ZM0 15H15V14H0V15ZM7.25193 5.06588L0.251931 9.06588L0.748069 9.93412L7.74807 5.93412L7.25193 5.06588ZM14.7481 9.06588L7.74807 5.06588L7.25193 5.93412L14.2519 9.93412L14.7481 9.06588ZM7 0V2.5H8V0H7ZM7 2.5V5.5H8V2.5H7ZM5 3H7.5V2H5V3ZM7.5 3H10V2H7.5V3ZM2 8.5V14.5H3V8.5H2ZM12 8.5V14.5H13V8.5H12ZM6 14.5V10.5H5V14.5H6ZM5.5 11H9.5V10H5.5V11ZM9 10.5V14.5H10V10.5H9Z" fill="black"/>
</svg>

<svg viewBox="0 0 15 15" xmlns="http://www.w3.org/2000/svg"><path d="M3 8.5c0-.28-.23-.5-.5-.5 -.28 0-.5.22-.5.5h1Zm10 0c0-.28-.23-.5-.5-.5 -.28 0-.5.22-.5.5h1Zm-7.5 2V10H5v.5h.5Zm4 0h.5V10h-.5v.5ZM0 15h15v-1H0v1Zm7.25-9.94l-7 4 .49.86 7-4 -.5-.87Zm7.49 4l-7.01-4 -.5.86 6.99 4 .49-.87ZM6.99-.01v2.5h1v-2.5h-1Zm0 2.5v3h1v-3h-1Zm-2 .5h2.5v-1h-2.5v1Zm2.5 0h2.5v-1h-2.5v1Zm-5.5 5.5v6h1v-6h-1Zm10 0v6h1v-6h-1Zm-6 6v-4h-1v4h1Zm-.5-3.5h4v-1h-4v1Zm3.5-.5v4h1v-4h-1Z"/></svg>
